Newaita-dark/apps/24/libreoffice-math.svg

<svg height="24" viewBox="0 0 24 24" width="24" xmlns="http://www.w3.org/2000/svg" xmlns:xlink="http://www.w3.org/1999/xlink"><linearGradient id="a" gradientTransform="matrix(.0558089 0 0 .0468795 -1.972752 10.079089)" gradientUnits="userSpaceOnUse" x1="254" x2="254" y1="233.5" y2="254.666672"><stop offset="0" stop-opacity=".27451"/><stop offset="1" stop-opacity="0"/></linearGradient><linearGradient id="b"><stop offset="0" stop-opacity=".313726"/><stop offset=".222222" stop-opacity=".27451"/><stop offset="1" stop-opacity="0"/></linearGradient><radialGradient id="c" cx="450.908936" cy="189.579361" gradientTransform="matrix(.00000013 -.0585994 -.105479 -.00000008 37.857636 47.696499)" gradientUnits="userSpaceOnUse" r="21.166656" xlink:href="#b"/><radialGradient id="d" cx="450.908936" cy="189.579361" gradientTransform="matrix(-.00000013 .0585994 .105479 .00000008 -14.042861 -5.645609)" gradientUnits="userSpaceOnUse" r="21.166656" xlink:href="#b"/><radialGradient id="e" cx="450.908936" cy="189.579361" gradientTransform="matrix(-.00000013 -.0585994 .105479 -.00000008 -14.042861 47.696499)" gradientUnits="userSpaceOnUse" r="21.166656" xlink:href="#b"/><radialGradient id="f" cx="450.908936" cy="189.579361" gradientTransform="matrix(.00000013 .0585994 -.105479 .00000008 37.857635 -5.64561)" gradientUnits="userSpaceOnUse" r="21.166656" xlink:href="#b"/><linearGradient id="g"><stop offset="0" stop-color="#78909c"/><stop offset="1" stop-color="#90a4ae"/></linearGradient><linearGradient id="h" gradientUnits="userSpaceOnUse" x1="11.90736" x2="11.90736" xlink:href="#g" y1="21.02539814717" y2="2.17207757661"/><linearGradient id="i" gradientUnits="userSpaceOnUse" x1="11.90736" x2="11.90736" y1="20.03311814717" y2="3.16435757661"><stop offset="0" stop-color="#e0e0e0"/><stop offset="1" stop-color="#eee"/></linearGradient><linearGradient id="j" gradientUnits="userSpaceOnUse" x1="11.60694687502" x2="11.60694687502" xlink:href="#g" y1="16.02752699995" y2="6.60084150001"/><path d="m5.707031 21.027344h12.402344v.992187h-12.402344zm0 0" fill="url(#a)"/><path d="m18.109375 21.027344h1.984375v-.996094h-1.984375zm0 0" fill="url(#c)"/><path d="m5.707031 21.027344h-1.984375v.992187h1.984375zm0 0" fill="url(#d)"/><path d="m5.707031 21.027344h-1.984375v-.996094h1.984375zm0 0" fill="url(#e)"/><path d="m18.109375 21.027344h1.984375v.992187h-1.984375zm0 0" fill="url(#f)"/><path d="m4.960938 2.171875c-.550782 0-.992188.441406-.992188.992187v16.867188c0 .550781.441406.996094.992188.996094h13.890624c.550782 0 .992188-.445313.992188-.996094v-11.289062l-6.566406-6.570313zm10.417968 0 4.464844 4.464844v-3.472657c0-.550781-.441406-.992187-.992188-.992187zm0 0" fill="url(#h)"/><path d="m5.457031 3.164062c-.273437 0-.496093.222657-.496093.496094v15.875c0 .277344.222656.496094.496093.496094h12.898438c.277343 0 .496093-.21875.496093-.496094v-10.417968l-5.953124-5.953126zm0 0" fill="url(#i)"/><path d="m4.960938 2.171875c-.550782 0-.992188.441406-.992188.992187v.25c0-.550781.441406-.992187.992188-.992187h8.316406l6.566406 6.570313v-.25l-6.566406-6.570313zm10.417968 0 .25.25h3.222656c.550782 0 .992188.441406.992188.992187v-.25c0-.550781-.441406-.992187-.992188-.992187zm0 0" fill="#fff" fill-opacity=".392157"/><path d="m5.457031 3.164062c-.273437 0-.496093.222657-.496093.496094v.371094c0-.273438.222656-.496094.496093-.496094h7.441407l5.953124 5.953125v-.371093l-5.953124-5.953126zm0 0" fill-opacity=".235294"/><path d="m4.960938 19.554688v.234374c0 .273438.222656.496094.496093.496094h12.898438c.277343 0 .496093-.222656.496093-.496094v-.234374c0 .273437-.21875.496093-.496093.496093h-12.898438c-.273437 0-.496093-.222656-.496093-.496093zm0 0" fill="#fff" fill-opacity=".392157"/><path d="m439.958009 255.093763c-22.04514 0-39.996182 17.951043-39.996182 39.996183v1279.877845c0 22.360071 17.951042 39.996183 39.996182 39.996183h1039.900749c22.360071 0 39.996183-17.636112 39.996183-39.996183v-839.919836l-479.954192-479.954192zm0 0" fill="none" stroke="#212121" stroke-linecap="round" stroke-linejoin="round" stroke-width="11.338583" transform="scale(.0124035)"/><path d="m15.378906 2.171875 4.464844 4.464844v-.242188l-4.222656-4.222656zm-11.410156 17.621094v.238281c0 .550781.441406.996094.992188.996094h13.890624c.550782 0 .992188-.445313.992188-.996094v-.238281c0 .546875-.441406.992187-.992188.992187h-13.890624c-.550782 0-.992188-.445312-.992188-.992187zm0 0" fill-opacity=".235294"/><path d="m399.961827 175.101398c-44.405211 0-79.992366 35.587155-79.992366 79.992365v1359.870211c0 44.40521 35.587155 80.307296 79.992366 80.307296h1119.893114c44.405211 0 79.992365-35.902086 79.992365-80.307296v-910.149354l-529.398291-529.713222zm839.919835 0 359.965644 359.965644v-279.973279c0-44.40521-35.587154-79.992365-79.992365-79.992365zm0 0" fill="none" stroke="#212121" stroke-linecap="round" stroke-linejoin="round" stroke-width="11.338583" transform="scale(.0124035)"/><g fill-rule="evenodd"><path d="m11.746094 7.84375c-.238282 0-.441406.167969-.488282.402344l-.816406 4.246094-.445312-1.792969c-.058594-.222657-.253906-.375-.484375-.375h-.992188c-.273437-.003907-.5.21875-.5.496093 0 .273438.226563.496094.5.492188h.605469l.898438 3.59375c.128906.515625.867187.496094.96875-.023438l1.164062-6.050781h3.0625c.277344.007813.503906-.214843.503906-.496093 0-.277344-.226562-.5-.503906-.492188zm1.230468 3.464844c-.398437 0-.632812.449218-.40625.777344l.808594 1.214843-.808594 1.210938c-.15625.230469-.09375.539062.132813.695312.230469.152344.542969.085938.691406-.144531l.582031-.871094.578126.871094c.152343.230469.460937.296875.691406.144531.230468-.15625.289062-.464843.132812-.695312l-.808594-1.210938.808594-1.214843c.230469-.335938-.015625-.789063-.421875-.777344-.164062.003906-.3125.089844-.402343.226562l-.578126.871094-.582031-.871094c-.089843-.140625-.246093-.226562-.417969-.226562zm0 0" fill="url(#j)"/><path d="m11.746094 7.84375c-.238282 0-.441406.167969-.488282.402344l-.816406 4.246094-.445312-1.792969c-.058594-.222657-.253906-.375-.484375-.375h-.992188c-.273437-.003907-.5.21875-.5.496093 0 .046876.007813.089844.019531.132813.058594-.207031.253907-.359375.480469-.355469h.992188c.230469 0 .425781.152344.484375.375l.445312 1.792969.816406-4.25c.046876-.230469.25-.402344.488282-.402344h3.472656c.230469-.003906.425781.152344.488281.359375.011719-.042968.015625-.085937.015625-.136718 0-.277344-.226562-.5-.503906-.492188zm1.230468 3.464844c-.339843 0-.5625.332031-.472656.632812.054688-.199218.234375-.359375.472656-.359375.171876 0 .328126.085938.417969.226563l.582031.871094.578126-.871094c.089843-.136719.238281-.222656.402343-.226563.246094-.007812.433594.15625.492188.359375.089843-.304687-.140625-.640625-.492188-.632812-.164062.003906-.3125.089844-.402343.226562l-.578126.871094-.582031-.871094c-.089843-.140625-.246093-.226562-.417969-.226562zm.3125 2.128906-.71875 1.074219c-.085937.128906-.105468.28125-.066406.417969.011719-.050782.035156-.097657.066406-.144532l.808594-1.210937zm1.375 0-.09375.136719.808594 1.210937c.03125.046875.054688.09375.070313.144532.039062-.136719.019531-.289063-.070313-.417969zm0 0" fill="#fff" fill-opacity=".392157"/><path d="m15.6875 8.496094c-.074219.1875-.257812.316406-.46875.3125h-3.0625l-1.164062 6.046875c-.101563.519531-.839844.542969-.96875.027343l-.898438-3.59375h-.605469c-.207031 0-.390625-.128906-.464843-.308593-.023438.054687-.035157.117187-.035157.183593 0 .277344.226563.5.5.496094h.605469l.898438 3.59375c.128906.515625.867187.496094.96875-.027344l1.164062-6.046874h3.0625c.277344.003906.503906-.21875.503906-.496094 0-.066406-.011718-.128906-.035156-.1875zm-.257812 3.46875c-.011719.03125-.027344.066406-.050782.09375l-.808594 1.214844.125.1875.683594-1.027344c.105469-.152344.109375-.324219.050782-.46875zm-2.910157 0c-.058593.144531-.050781.320312.050781.46875l.683594 1.027344.125-.1875-.808594-1.214844c-.019531-.027344-.039062-.0625-.050781-.09375zm1.457031 2.203125-.582031.867187c-.148437.234375-.460937.296875-.691406.144532-.085937-.058594-.148437-.136719-.183594-.226563-.085937.214844-.015625.464844.183594.597656.230469.152344.542969.089844.691406-.140625l.582031-.871094.578126.871094c.152343.230469.460937.292969.691406.140625.199218-.132812.269531-.382812.183594-.597656-.035157.089844-.097657.167969-.183594.226563-.230469.152343-.539063.089843-.691406-.144532zm0 0" fill-opacity=".235294"/></g><path d="m250.559406-47.682645c-5.082848 0-9.415767 3.582991-10.415672 8.582514l-17.415004 90.574684-9.499092-38.246348c-1.249881-4.749546-5.41615-7.999236-10.332347-7.999236h-21.164646c-5.832776-.083325-10.665648 4.666221-10.665648 10.582323 0 5.832776 4.832872 10.582323 10.665648 10.498997h12.915434l19.164836 76.659346c2.749738 10.99895 18.498234 10.582323 20.664694-.499952l24.830962-129.071008h65.327095c5.916101.166651 10.748973-4.582895 10.748973-10.582322 0-5.916102-4.832872-10.665648-10.748973-10.498998zm26.247494 73.909609c-8.499189 0-13.498711 9.582418-8.66584 16.58175l17.248353 25.914192-17.248353 25.830866c-3.333015 4.916198-1.999809 11.498902 2.833063 14.831917 4.916197 3.24969 11.582228 1.833159 14.748592-3.083039l12.415481-18.581558 12.332156 18.581558c3.249689 4.916198 9.832394 6.332729 14.748591 3.083039 4.916197-3.333015 6.166078-9.915719 2.833063-14.831917l-17.248353-25.830866 17.248353-25.914192c4.916197-7.165983-.333302-16.831726-8.999141-16.58175-3.499665.083325-6.66603 1.916484-8.582513 4.832872l-12.332156 18.581559-12.415481-18.581559c-1.916484-2.999714-5.249499-4.832872-8.915815-4.832872zm0 0" fill="none" stroke="#212121" stroke-linecap="round" stroke-linejoin="round" stroke-width="3" transform="matrix(.0468795 0 0 .0468795 0 10.079087)"/></svg>

<?xml version="1.0" encoding="UTF-8"?>
<svg xmlns="http://www.w3.org/2000/svg" xmlns:xlink="http://www.w3.org/1999/xlink" width="24px" height="24px" viewBox="0 0 24 24" version="1.1">
<defs>
<linearGradient id="linear0" gradientUnits="userSpaceOnUse" x1="254" y1="233.5" x2="254" y2="254.666672" gradientTransform="matrix(0.0558089,0,0,0.0468795,-1.972752,10.079089)">
<stop offset="0" style="stop-color:rgb(0%,0%,0%);stop-opacity:0.27451;"/>
<stop offset="1" style="stop-color:rgb(0%,0%,0%);stop-opacity:0;"/>
</linearGradient>
<radialGradient id="radial0" gradientUnits="userSpaceOnUse" cx="450.908936" cy="189.579361" fx="450.908936" fy="189.579361" r="21.166656" gradientTransform="matrix(0.000000130628,-0.0585994,-0.105479,-0.0000000761539,37.857636,47.696499)">
<stop offset="0" style="stop-color:rgb(0%,0%,0%);stop-opacity:0.313726;"/>
<stop offset="0.222222" style="stop-color:rgb(0%,0%,0%);stop-opacity:0.27451;"/>
<stop offset="1" style="stop-color:rgb(0%,0%,0%);stop-opacity:0;"/>
</radialGradient>
<radialGradient id="radial1" gradientUnits="userSpaceOnUse" cx="450.908936" cy="189.579361" fx="450.908936" fy="189.579361" r="21.166656" gradientTransform="matrix(-0.000000130628,0.0585994,0.105479,0.0000000761539,-14.042861,-5.645609)">
<stop offset="0" style="stop-color:rgb(0%,0%,0%);stop-opacity:0.313726;"/>
<stop offset="0.222222" style="stop-color:rgb(0%,0%,0%);stop-opacity:0.27451;"/>
<stop offset="1" style="stop-color:rgb(0%,0%,0%);stop-opacity:0;"/>
</radialGradient>
<radialGradient id="radial2" gradientUnits="userSpaceOnUse" cx="450.908936" cy="189.579361" fx="450.908936" fy="189.579361" r="21.166656" gradientTransform="matrix(-0.000000130628,-0.0585994,0.105479,-0.0000000761539,-14.042861,47.696499)">
<stop offset="0" style="stop-color:rgb(0%,0%,0%);stop-opacity:0.313726;"/>
<stop offset="0.222222" style="stop-color:rgb(0%,0%,0%);stop-opacity:0.27451;"/>
<stop offset="1" style="stop-color:rgb(0%,0%,0%);stop-opacity:0;"/>
</radialGradient>
<radialGradient id="radial3" gradientUnits="userSpaceOnUse" cx="450.908936" cy="189.579361" fx="450.908936" fy="189.579361" r="21.166656" gradientTransform="matrix(0.000000130628,0.0585994,-0.105479,0.0000000761539,37.857635,-5.64561)">
<stop offset="0" style="stop-color:rgb(0%,0%,0%);stop-opacity:0.313726;"/>
<stop offset="0.222222" style="stop-color:rgb(0%,0%,0%);stop-opacity:0.27451;"/>
<stop offset="1" style="stop-color:rgb(0%,0%,0%);stop-opacity:0;"/>
</radialGradient>
<linearGradient id="linear1" gradientUnits="userSpaceOnUse" x1="254" y1="233.5" x2="254" y2="-168.666672" gradientTransform="matrix(0.0468795,0,0,0.0468795,0,10.079087)">
<stop offset="0" style="stop-color:rgb(87.843138%,87.843138%,87.843138%);stop-opacity:1;"/>
<stop offset="1" style="stop-color:rgb(93.333334%,93.333334%,93.333334%);stop-opacity:1;"/>
</linearGradient>
<linearGradient id="linear2" gradientUnits="userSpaceOnUse" x1="413.712219" y1="-474.701691" x2="413.712219" y2="-72.535034" gradientTransform="matrix(0.0468795,0,0,0.0468795,0,10.079087)">
<stop offset="0" style="stop-color:rgb(47.058824%,56.470591%,61.176473%);stop-opacity:1;"/>
<stop offset="1" style="stop-color:rgb(56.470591%,64.313728%,68.235296%);stop-opacity:1;"/>
</linearGradient>
<linearGradient id="linear3" gradientUnits="userSpaceOnUse" x1="243.416672" y1="127.666656" x2="243.416672" y2="-73.416664" gradientTransform="matrix(0.0468795,0,0,0.0468795,0.195695,10.079099)">
<stop offset="0" style="stop-color:rgb(47.058824%,56.470591%,61.176473%);stop-opacity:1;"/>
<stop offset="1" style="stop-color:rgb(56.470591%,64.313728%,68.235296%);stop-opacity:1;"/>
</linearGradient>
</defs>
<g id="surface1">
<path style=" stroke:none;fill-rule:nonzero;fill:url(#linear0);" d="M 5.707031 21.027344 L 18.109375 21.027344 L 18.109375 22.019531 L 5.707031 22.019531 Z M 5.707031 21.027344 "/>
<path style=" stroke:none;fill-rule:nonzero;fill:url(#radial0);" d="M 18.109375 21.027344 L 20.09375 21.027344 L 20.09375 20.03125 L 18.109375 20.03125 Z M 18.109375 21.027344 "/>
<path style=" stroke:none;fill-rule:nonzero;fill:url(#radial1);" d="M 5.707031 21.027344 L 3.722656 21.027344 L 3.722656 22.019531 L 5.707031 22.019531 Z M 5.707031 21.027344 "/>
<path style=" stroke:none;fill-rule:nonzero;fill:url(#radial2);" d="M 5.707031 21.027344 L 3.722656 21.027344 L 3.722656 20.03125 L 5.707031 20.03125 Z M 5.707031 21.027344 "/>
<path style=" stroke:none;fill-rule:nonzero;fill:url(#radial3);" d="M 18.109375 21.027344 L 20.09375 21.027344 L 20.09375 22.019531 L 18.109375 22.019531 Z M 18.109375 21.027344 "/>
<path style=" stroke:none;fill-rule:nonzero;fill:url(#linear1);" d="M 14.929688 2.171875 L 4.960938 2.171875 C 4.410156 2.171875 3.96875 2.613281 3.96875 3.164062 L 3.96875 20.03125 C 3.96875 20.582031 4.410156 21.027344 4.960938 21.027344 L 18.851562 21.027344 C 19.402344 21.027344 19.84375 20.582031 19.84375 20.03125 L 19.84375 6.679688 Z M 14.929688 2.171875 "/>
<path style=" stroke:none;fill-rule:nonzero;fill:url(#linear2);" d="M 14.929688 2.171875 L 19.84375 6.679688 L 19.84375 3.164062 C 19.84375 2.613281 19.402344 2.171875 18.851562 2.171875 Z M 14.929688 2.171875 "/>
<path style=" stroke:none;fill-rule:nonzero;fill:rgb(0%,0%,0%);fill-opacity:0.235294;" d="M 3.96875 19.785156 L 3.96875 20.03125 C 3.96875 20.582031 4.410156 21.027344 4.960938 21.027344 L 18.851562 21.027344 C 19.402344 21.027344 19.84375 20.582031 19.84375 20.03125 L 19.84375 19.785156 C 19.84375 20.335938 19.402344 20.777344 18.851562 20.777344 L 4.960938 20.777344 C 4.410156 20.777344 3.96875 20.335938 3.96875 19.785156 Z M 3.96875 19.785156 "/>
<path style=" stroke:none;fill-rule:nonzero;fill:rgb(100%,100%,100%);fill-opacity:1;" d="M 4.960938 2.171875 C 4.410156 2.171875 3.96875 2.613281 3.96875 3.164062 L 3.96875 3.660156 C 3.96875 3.109375 4.410156 2.667969 4.960938 2.667969 L 14.929688 2.667969 L 19.84375 7.175781 L 19.84375 6.679688 L 14.929688 2.171875 Z M 4.960938 2.171875 "/>
<path style=" stroke:none;fill-rule:nonzero;fill:rgb(100%,100%,100%);fill-opacity:0.392157;" d="M 14.929688 2.171875 L 15.46875 2.667969 L 18.851562 2.667969 C 19.402344 2.667969 19.84375 3.109375 19.84375 3.660156 L 19.84375 3.164062 C 19.84375 2.613281 19.402344 2.171875 18.851562 2.171875 Z M 14.929688 2.171875 "/>
<path style=" stroke:none;fill-rule:nonzero;fill:rgb(0%,0%,0%);fill-opacity:0.235294;" d="M 14.929688 2.171875 L 19.84375 6.679688 L 19.84375 6.265625 L 15.378906 2.171875 Z M 14.929688 2.171875 "/>
<path style="fill:none;stroke-width:11.338583;stroke-linecap:round;stroke-linejoin:round;stroke:rgb(12.941177%,12.941177%,12.941177%);stroke-opacity:1;stroke-miterlimit:4;" d="M 1203.664647 175.101398 L 399.961827 175.101398 C 355.556616 175.101398 319.969461 210.688553 319.969461 255.093763 L 319.969461 1614.963974 C 319.969461 1659.369184 355.556616 1695.27127 399.961827 1695.27127 L 1519.854941 1695.27127 C 1564.260152 1695.27127 1599.847306 1659.369184 1599.847306 1614.963974 L 1599.847306 538.531278 Z M 1203.664647 175.101398 " transform="matrix(0.0124035,0,0,0.0124035,0,0)"/>
<path style="fill:none;stroke-width:3;stroke-linecap:round;stroke-linejoin:round;stroke:rgb(12.941177%,12.941177%,12.941177%);stroke-opacity:1;stroke-miterlimit:4;" d="M 318.469588 -168.671091 L 423.292911 -72.513607 L 423.292911 -147.506445 C 423.292911 -159.255323 413.877143 -168.671091 402.128265 -168.671091 Z M 318.469588 -168.671091 " transform="matrix(0.0468795,0,0,0.0468795,0,10.079087)"/>
<path style=" stroke:none;fill-rule:evenodd;fill:url(#linear3);" d="M 11.746094 7.878906 C 11.507812 7.878906 11.304688 8.046875 11.257812 8.28125 L 10.441406 12.527344 L 9.996094 10.734375 C 9.9375 10.515625 9.742188 10.359375 9.511719 10.359375 L 8.519531 10.359375 C 8.246094 10.355469 8.019531 10.578125 8.019531 10.855469 C 8.019531 11.132812 8.246094 11.355469 8.519531 11.351562 L 9.125 11.351562 L 10.023438 14.945312 C 10.152344 15.460938 10.890625 15.4375 10.992188 14.917969 L 12.15625 8.871094 L 15.21875 8.871094 C 15.496094 8.875 15.722656 8.652344 15.722656 8.375 C 15.722656 8.097656 15.496094 7.875 15.21875 7.878906 Z M 12.976562 11.34375 C 12.578125 11.347656 12.34375 11.792969 12.570312 12.121094 L 13.378906 13.335938 L 12.570312 14.550781 C 12.414062 14.777344 12.476562 15.089844 12.703125 15.242188 C 12.933594 15.394531 13.246094 15.332031 13.394531 15.097656 L 13.976562 14.230469 L 14.554688 15.097656 C 14.707031 15.332031 15.015625 15.394531 15.246094 15.242188 C 15.476562 15.089844 15.535156 14.777344 15.378906 14.550781 L 14.570312 13.335938 L 15.378906 12.121094 C 15.609375 11.789062 15.363281 11.335938 14.957031 11.347656 C 14.792969 11.351562 14.644531 11.433594 14.554688 11.570312 L 13.976562 12.441406 L 13.394531 11.570312 C 13.304688 11.429688 13.148438 11.34375 12.976562 11.34375 Z M 12.976562 11.34375 "/>
<path style=" stroke:none;fill-rule:evenodd;fill:rgb(100%,100%,100%);fill-opacity:0.392157;" d="M 11.746094 7.878906 C 11.507812 7.878906 11.304688 8.046875 11.257812 8.28125 L 10.441406 12.527344 L 9.996094 10.734375 C 9.9375 10.515625 9.742188 10.359375 9.511719 10.359375 L 8.519531 10.359375 C 8.246094 10.355469 8.019531 10.578125 8.019531 10.855469 C 8.019531 10.902344 8.027344 10.949219 8.039062 10.992188 C 8.097656 10.78125 8.292969 10.628906 8.519531 10.632812 L 9.511719 10.632812 C 9.742188 10.632812 9.9375 10.789062 9.996094 11.007812 L 10.441406 12.800781 L 11.257812 8.554688 C 11.304688 8.320312 11.507812 8.152344 11.746094 8.152344 L 15.21875 8.152344 C 15.449219 8.148438 15.644531 8.300781 15.707031 8.511719 C 15.71875 8.46875 15.722656 8.421875 15.722656 8.375 C 15.722656 8.097656 15.496094 7.875 15.21875 7.878906 Z M 12.976562 11.34375 C 12.636719 11.347656 12.414062 11.675781 12.503906 11.980469 C 12.558594 11.78125 12.738281 11.621094 12.976562 11.617188 C 13.148438 11.617188 13.304688 11.703125 13.394531 11.84375 L 13.976562 12.714844 L 14.554688 11.84375 C 14.644531 11.707031 14.792969 11.625 14.957031 11.617188 C 15.203125 11.613281 15.390625 11.777344 15.449219 11.980469 C 15.539062 11.671875 15.308594 11.335938 14.957031 11.347656 C 14.792969 11.351562 14.644531 11.433594 14.554688 11.570312 L 13.976562 12.441406 L 13.394531 11.570312 C 13.304688 11.429688 13.148438 11.34375 12.976562 11.34375 Z M 13.289062 13.472656 L 12.570312 14.550781 C 12.484375 14.675781 12.464844 14.828125 12.503906 14.964844 C 12.515625 14.914062 12.539062 14.867188 12.570312 14.820312 L 13.378906 13.609375 Z M 14.664062 13.472656 L 14.570312 13.609375 L 15.378906 14.820312 C 15.410156 14.867188 15.433594 14.914062 15.449219 14.964844 C 15.488281 14.828125 15.46875 14.675781 15.378906 14.550781 Z M 14.664062 13.472656 "/>
<path style=" stroke:none;fill-rule:evenodd;fill:rgb(0%,0%,0%);fill-opacity:0.235294;" d="M 15.6875 8.535156 C 15.613281 8.71875 15.429688 8.847656 15.21875 8.84375 L 12.15625 8.84375 L 10.992188 14.890625 C 10.890625 15.414062 10.152344 15.433594 10.023438 14.917969 L 9.125 11.324219 L 8.519531 11.324219 C 8.3125 11.328125 8.128906 11.199219 8.054688 11.015625 C 8.03125 11.074219 8.019531 11.136719 8.019531 11.199219 C 8.019531 11.476562 8.246094 11.699219 8.519531 11.695312 L 9.125 11.695312 L 10.023438 15.289062 C 10.152344 15.804688 10.890625 15.785156 10.992188 15.265625 L 12.15625 9.214844 L 15.21875 9.214844 C 15.496094 9.222656 15.722656 9 15.722656 8.71875 C 15.722656 8.65625 15.710938 8.59375 15.6875 8.535156 Z M 15.429688 12.003906 C 15.417969 12.035156 15.402344 12.066406 15.378906 12.097656 L 14.570312 13.308594 L 14.695312 13.496094 L 15.378906 12.46875 C 15.484375 12.320312 15.488281 12.148438 15.429688 12.003906 Z M 12.519531 12.003906 C 12.460938 12.148438 12.46875 12.320312 12.570312 12.46875 L 13.253906 13.496094 L 13.378906 13.308594 L 12.570312 12.097656 C 12.550781 12.066406 12.53125 12.035156 12.519531 12.003906 Z M 13.976562 14.203125 L 13.394531 15.074219 C 13.246094 15.304688 12.933594 15.371094 12.703125 15.214844 C 12.617188 15.160156 12.554688 15.078125 12.519531 14.988281 C 12.433594 15.203125 12.503906 15.453125 12.703125 15.589844 C 12.933594 15.742188 13.246094 15.675781 13.394531 15.445312 L 13.976562 14.574219 L 14.554688 15.445312 C 14.707031 15.675781 15.015625 15.742188 15.246094 15.589844 C 15.445312 15.453125 15.515625 15.203125 15.429688 14.988281 C 15.394531 15.078125 15.332031 15.160156 15.246094 15.214844 C 15.015625 15.371094 14.707031 15.304688 14.554688 15.074219 Z M 13.976562 14.203125 "/>
<path style="fill:none;stroke-width:3;stroke-linecap:round;stroke-linejoin:round;stroke:rgb(12.941177%,12.941177%,12.941177%);stroke-opacity:1;stroke-miterlimit:4;" d="M 250.559406 -46.932716 C 245.476558 -46.932716 241.143639 -43.349725 240.143734 -38.350203 L 222.72873 52.224481 L 213.229638 13.978134 C 211.979757 9.311913 207.813488 5.978898 202.897291 5.978898 L 181.732645 5.978898 C 175.899869 5.895572 171.066997 10.645119 171.066997 16.56122 C 171.066997 22.477322 175.899869 27.226868 181.732645 27.143543 L 194.648079 27.143543 L 213.812915 103.802889 C 216.562653 114.801839 232.311149 114.301887 234.477609 103.219612 L 259.308571 -25.768071 L 324.635666 -25.768071 C 330.551767 -25.684745 335.384639 -30.434292 335.384639 -36.350394 C 335.384639 -42.266495 330.551767 -47.016042 324.635666 -46.932716 Z M 276.8069 26.976892 C 268.307711 27.060218 263.308189 36.559311 268.14106 43.558642 L 285.389413 69.472834 L 268.14106 95.387026 C 264.808045 100.219898 266.141251 106.885928 270.974123 110.135618 C 275.89032 113.385307 282.556351 112.052101 285.722715 107.052579 L 298.138196 88.554345 L 310.470352 107.052579 C 313.720041 112.052101 320.302746 113.385307 325.218943 110.135618 C 330.13514 106.885928 331.385021 100.219898 328.052006 95.387026 L 310.803653 69.472834 L 328.052006 43.558642 C 332.968203 36.475985 327.718704 26.810242 319.052865 27.060218 C 315.5532 27.143543 312.386835 28.893376 310.470352 31.809764 L 298.138196 50.391323 L 285.722715 31.809764 C 283.806231 28.810051 280.473216 26.976892 276.8069 26.976892 Z M 276.8069 26.976892 " transform="matrix(0.0468795,0,0,0.0468795,0,10.079087)"/>
</g>
</svg>
